X: 1
T: Sofia vals
S: eft. Matts Israelsson-Str\"om, Malax
R: waltz
Z: 2008 John Chambers <jc:trillian.mit.edu>
F: http://www.spelmansforbundet.fi/musik/ovriga_latar/
M: 3/4
L: 1/4
K: D
A \
| ABA- | ABA | Af/f/f | ~fed \
| dgg | ~gfe | eaa | a2A- |
| ABA- | ABA- | Aff | d2d \
| egg | [e2c2][ec] | ddd | d2 :|
|: a \
| ad'a | f2f | f/e/gf | d2A \
| Agg | ~gfe | eaa | a2a |
| ad'a | f2f | f/e/gf | d2e \
| egg | gec | edd | d2 :|
